src/icons/solid/symbols/check.svg

<svg width="24" height="24" viewBox="0 0 24 24" fill="none" xmlns="http://www.w3.org/2000/svg">
<g clip-path="url(#clip0_4383_512)">
<path d="M9.7951 22C9.17699 22 8.57982 21.7369 8.13981 21.2633L1.41393 13.9071C0.827247 13.2652 0.869153 12.2654 1.50822 11.6761C2.14728 11.0867 3.14254 11.1288 3.72923 11.7708L9.69033 18.2851L20.1249 2.69917C20.6068 1.97302 21.5811 1.78359 22.304 2.26769C23.0269 2.75178 23.2154 3.73051 22.7335 4.45666L11.6704 20.9792C11.2723 21.5685 10.6542 21.9369 9.96272 21.9895C9.91034 21.9895 9.84748 21.9895 9.7951 21.9895V22Z" fill="#3C3B44"/>
</g>
<defs>
<clipPath id="clip0_4383_512">
<rect width="24" height="24" fill="white"/>
</clipPath>
</defs>
</svg>

<svg xmlns="http://www.w3.org/2000/svg" width="24" height="24" fill="none" viewBox="0 0 24 24"><g clip-path="url(#a)"><path fill="currentColor" d="M9.795 22a2.26 2.26 0 0 1-1.655-.737l-6.726-7.356a1.585 1.585 0 0 1 .094-2.23 1.57 1.57 0 0 1 2.221.094l5.961 6.514L20.125 2.7a1.564 1.564 0 0 1 2.179-.431 1.58 1.58 0 0 1 .43 2.189L11.67 20.979a2.26 2.26 0 0 1-1.707 1.01h-.168z"/></g><defs><clipPath id="a"><path fill="currentColor" d="M0 0h24v24H0z"/></clipPath></defs></svg>
